app/assets/images/remix_icon/health/zzz-fill.svg

<svg viewBox="0 0 24 24" xmlns="http://www.w3.org/2000/svg"><path d="M11 11V13L5.67257 19H11V21H3V19L8.32557 13H3V11H11ZM21 3V5L15.6726 11H21V13H13V11L18.3256 5H13V3H21Z"/></svg>

<svg xmlns="http://www.w3.org/2000/svg" viewBox="0 0 24 24">
    <g>
        <path fill="none" d="M0 0H24V24H0z"/>
        <path d="M11 11v2l-5.327 6H11v2H3v-2l5.326-6H3v-2h8zm10-8v2l-5.327 6H21v2h-8v-2l5.326-6H13V3h8z"/>
    </g>
</svg>
